X:5
T:Mull of Kintyre
R:Jig
C:A. Duncan
M:6/8
L:1/8
K:D
[|: {g}G2 {d}B {g}A{d}A{e}A | {g}BdB {g}A{d}A{e}A | {g}G2 {d}B {g}A{d}A{e}A | {g}Bcd {gef}e3 |
{g}G2 {d}B {g}A{d}A{e}A | {g}BdB {G}A2 a | {fg}fed {g}edB | {g}A3 {Gdc}d3 :|]
[|: e |{g}f2 d {G}def | {gf}g2 e {A}e2 a | {fg}f2 d {gde}dcd | {g}ec{G}A {g}A2 e |
{g}f2 d {G}def | {gf}g2 e {A}e2 a | {fg}fed {g}edB | {g}A3 {Gdc}d3 :|]
